!!!Genre:	Dobridyen'
!!!Mode:	Minor
!!!Listening/dance:	listening
!!!One_Mode:	yes
!!!	ABC
!!!Orig_tonic: D
**kern
*I"P1
*clefG2
*k[b-e-]
*-
!!!Genre:	Dobridyen'
!!!Mode:	Freygish
!!!Listening/dance:	listening
!!!One_Mode:	yes
!!!:	AB
!!!Orig_tonic: unkown
**kern
*I"P1
*clefG2
*k[b-e-a-]
*-
!!!Genre:	Dobridyen'
!!!Mode:	Freygish
!!!Listening/dance:	listening
!!!One_Mode:	yes
!!!Orig_tonic: unknown
**kern
*I"P1
*clefG2
*k[b-e-a-]
*-
!!!Genre:	Dobranotsh
!!!Mode:	Freygish
!!!Listening/dance:	listening
!!!:	*C:
!!!One_Mode:	no
!!!Orig_tonic: E
**kern
*I"P1
*clefG2
*k[b-e-a-]
*-
!!!Genre:	Dobridyen'
!!!Mode:	Minor
!!!Listening/dance:	listening
!!!One_Mode:	yes
!!!Orig_tonic: E
**kern
*I"P1
*clefG2
*k[b-e-]
*-
!!!Genre:	Dobranotsh
!!!Mode:	Minor
!!!Listening/dance:	listening
!!!:	*B-:
!!!One_Mode:	no
!!!Orig_tonic: C
**kern
*clefG2
*k[b-e-]
*B-:
=18!|:
*>B
4b-
4b-
8b-L
8ccJ
=19
4dd
4dd
8ddL
8ee-J
=20
2ff
4gg
=21
2ff
4f
=22
2ff
8qff/
8ee-L
8ddJ
=23
4cc
4dd
16ee-LL
16ddJ
8ccJ
=24
2.b-
=25
2B-
4f
=26:|!
2B-
4cc#X
*>eM
*-
!!!Genre:	Dobranotsh
!!!Mode:	Minor
!!!Listening/dance:	listening
!!!One_Mode:	no
!!!Orig_tonic: G
**kern
*I"P1
*clefG2
*k[b-e-]
*-
!!!Genre:	Mazltov (Dobranotsh)
!!!Mode:	Minor
!!!Listening/dance:	listening
!!!:	*B-:
!!!One_Mode:	no
!!!Orig_tonic: G
**kern
*I"P1
*clefG2
*k[b-e-]
*B-:
=18!|:
[4ff
16ffLL]
16ee-
16dd
16ee-JJ
=19
4dd
(16qqcc/LL
16qqdd/JJ
8ccL)
8b-J
=20
8ffL
8ggJ
16aa-XLL
16gg
16ff
16eenJJ
=21
4.ff
8fff
=22
(32fffLLL
32eee-
32ddd
32cccJJ
32eee-LL
32ddd
32ccc
32bb-JJJ
32dddLLL
32ccc
32bb-
32aaJJ
32cccLL
32bb-
32aa
32ggJJJ
=23
32bb-LLL
32aa
32gg
32ffJJ
32aaLL
32gg
32ff
32ee-JJJ
32ggLLL
32ff
32ee-
32ddJJ
32ffLL
32ee-
32dd
32ccJJJ)
=24
16ccLL
16dd
16ee-
16eenJJ
(16ffLL
16gg)
(16cc
16ee-XJJ)
=25
4.dd
(8qdd/
16ccLL)
16b-JJ
=26
16b-LL
(16ccc
16ddd)
16b-JJ
16aLL
(16bbn
16ccc)
16aJJ
=27
16ggLL
16aa
16bb-
16ggJJ
16ffLL
16ee-
16dd
16ccJJ
=28
(16b-LL
16a)
(16a
16ggJJ)
(16ggLL
16ff)
(16a
16ccJJ)
=29
(16ccLL
16b-J)
[8b-J
16b-LL]
16f
16b-
16ddJJ
=30:|!|:
(16ccLL
16b-JJ)
4b-
8cc
*>eM
*-
!!!Genre:	Dobranotsh (mazltov)
!!!Mode:	Altered Dorian
!!!Listening/dance:	listening
!!!One_Mode:	yes
!!!Orig_tonic: C
**kern
*I"P1
*clefG2
*k[b-]
*-
!!!Genre:	Dobranotsh
!!!Mode:	Minor
!!!Listening/dance:	listening
!!!One_Mode:	yes
!!!Orig_tonic: A
**kern
*I"P1
*clefG2
*k[b-e-]
*-
!!!Genre:	Dobridyen'
!!!Mode:	Freygish
!!!Listening/dance:	listening
!!!One_Mode:	yes
!!!Orig_tonic: D
**kern
*I"P1
*clefG2
*k[b-e-a-]
*-
!!!Genre:	Freylekhs (tsu der khupe)
!!!Mode:	Freygish
!!!Listening/dance:	listening
!!!:	*C:
!!!One_Mode:	no
!!!Orig_tonic: C
**kern
*I"P1
*clefG2
*k[b-e-a-]
*-
!!!Genre:	Freylekhs (fun der khupe)
!!!Mode:	Minor
!!!Listening/dance:	listening
!!!One_Mode:	yes
!!!Orig_tonic: G
**kern
*I"P1
*clefG2
*k[b-e-]
*-
!!!Genre: Khtsos
!!!Mode: Minor
!!!One Mode: yes
!!!Orig_tonic: Ab
**kern
!!pagebreak:original
*clefG2
*k[b-e-]
*-
!!!Genre:	Taksim
!!!Mode:	Altered Dorian
!!!Listening/dance:	listening
!!!One_Mode:	no
!!!Orig_tonic: unkonwn
**kern
*I"P1
*clefG2
*k[b-]
*-
!!!Genre:	Doyne
!!!Mode:	Freygish
!!!Listening/dance:	listening
!!!:	*c:
!!!One_Mode:	no
!!!Orig_tonic: unknown
**kern
*I"P1
*clefG2
*k[b-e-a-]
*-
!!!Genre:	Doyne
!!!Mode:	Altered Dorian
!!!Listening/dance:	listening
!!!One_Mode:	All altered Dorian
!!!Orig_tonic: unknown
**kern
*I"P1
*clefG2
*k[b-]
*-
!!!Genre:	Skotshne
!!!Mode:	Freygish
!!!Listening/dance:	listening
!!!One_Mode:	yes
!!!Orig_tonic: unknown
**kern
*I"P1
*clefG2
*k[b-e-a-]
*-
!!!Genre:	Skotshne
!!!Mode:	Freygish
!!!Listening/dance:	listening
!!!One_Mode:	yes
!!!Orig_tonic: unknown
**kern
*I"P1
*clefG2
*k[b-e-a-]
*-
!!!Genre:	Skotshne
!!!Mode:	Freygish
!!!Listening/dance:	listening
!!!:	*c:; *g:
!!!One_Mode:	no
!!!Orig_tonic: unknown
**kern
*I"P1
*clefG2
*k[b-e-a-]
*-
!!!Genre:	Skotshne
!!!Mode:	Freygish
!!!Listening/dance:	listening
!!!One_Mode:	no
!!!Orig_tonic: A
**kern
*I"P1
*clefG2
*k[b-e-a-]
*-
!!!Genre:	Skotshne
!!!Mode:	Freygish
!!!Listening/dance:	listening
!!!:	*B-:
!!!One_Mode:	no
!!!Orig_tonic: unknown
**kern
*I"P1
*clefG2
*k[b-e-a-]
*B-:
=22
4.b-X
16ccLL
16ddJJ
=23
4.b-X
16ccLL
16ddJJ
=24
8b-XL
16ccL
16ddJJ
8b-L
16ccL
16ddJJ
=25
[4b-X
(16b-LL]
16an)
(16a
16gJJ)
*>eM
*>bM
*B-:
=30
4.b-X
16ccLL
16ddJJ
=31
4.b-X
16ccLL
16ddJJ
=32
8b-XL
16ccL
16ddJJ
8b-L
16ccL
16ddJJ
=33
8b-X
8r
*>D
4bn
*>eM
*-
!!!Genre:	Freylekhs
!!!Mode:	Freygish
!!!Listening/dance:	listening
!!!:	*C:; *c:
!!!One_Mode:	no
!!!Orig_tonic: C
**kern
*I"P1
*clefG2
*k[b-e-a-]
*B-:
=14
8cc
4ff
8ff
=15
8cc
4ff
8ff
=16
8ffL
16ee-L
16ffJJ
8ee-L
16ddL
16ee-JJ
=17
8ddL
16ccL
16ddJJ
8ccL
8bnJ
*>eM
*-
!!!Genre:	Skotshne
!!!Mode:	Freygish
!!!Listening/dance:	listening
!!!One_Mode:	yes
!!!Orig_tonic: G
**kern
*I"P1
*clefG2
*k[b-e-a-]
*-
!!!Genre:	Freylekhs
!!!Mode:	Freygish
!!!Listening/dance:	listening
!!!:	*B-:
!!!One_Mode:	no
!!!Orig_tonic: A
**kern
*I"P1
*clefG2
*k[b-e-a-]
*B-:
=14
[4b-X
16b-LL]
16f
16dd
16ccJJ
=15
[4b-
16b-LL]
16f
16dd
16ccJJ
=16
16b-LL
16f
16dd
16ccJJ
16b-LL
16f
16dd
16ccJJ
=17
[4b-
16b-LL]
16g
16an
16bnJJ
=18:|!
4.b-X
*>C
(8gg
*>eM
*-
!!!Genre:	Freylekhs
!!!Mode:	Freygish
!!!Listening/dance:	listening
!!!:	*F:
!!!One_Mode:	no
**kern
*I"P1
*clefG2
*k[b-e-a-]
*-
!!!Genre:	Skotshne
!!!Mode:	Freygish
!!!Listening/dance:	listening
!!!:	*C:; *c:dor
!!!One_Mode:	no
**kern
*I"P1
*clefG2
*k[b-e-a-]
*-
!!!Genre:	Lekhaim
!!!Mode:	Freygish
!!!Listening/dance:	listening
!!!One_Mode:	yes
**kern
*I"P1
*clefG2
*k[b-e-a-]
*-
!!!Genre:	Skotshne
!!!Mode:	Freygish
!!!Listening/dance:	listening
!!!One_Mode:	no
**kern
*I"P1
*clefG2
*k[b-e-a-]
*-
!!!Genre:	Freylekhs
!!!Mode:	Freygish
!!!Listening/dance:	listening
!!!One_Mode:	yes
**kern
*I"P1
*clefG2
*k[b-e-a-]
*-
!!!Genre:	Freylekhs
!!!Mode:	Freygish
!!!Listening/dance:	listening
!!!One_Mode:	yes
**kern
*I"P1
*clefG2
*k[b-e-a-]
*-
!!!Genre:	Nign
!!!Mode:	Freygish
!!!Listening/dance:	listening
!!!:	*c:
!!!One_Mode:	no
**kern
*I"P1
*clefG2
*k[b-e-a-]
*-
!!!Genre:	Nign
!!!Mode:	Minor
!!!Listening/dance:	listening
!!!One_Mode:	yes
**kern
*I"P1
*clefG2
*k[b-e-]
*-
!!!Genre:	Skotshne
!!!Mode:	Minor
!!!Listening/dance:	listening
!!!One_Mode:	yes
**kern
*I"P1
*clefG2
*k[b-e-]
*-
!!!Genre:	Skotshne
!!!Mode:	Minor
!!!Listening/dance:	listening
!!!:	*B-:
!!!One_Mode:	no
**kern
*I"P1
*clefG2
*k[b-e-]
*B-:
=18!|:
4.ff
16eenLL
16ggJJ
=19
(4.ff
8bb-)
=20
(16bb-LL
16aa
16gg
16ffJJ)
(16ggLL
16ff
16ee-
16ddJJ)
=21
16ee-LL
16dd
16cc
16b-JJ
16ccLL
16b-
16a
16gJJ
=22
16fLL
16g
16a
16b-JJ
16ccLL
16dd
16ee-
16ddJJ
=23
4.cc
8dd
=24
(16ddLL
16ee-)
(16cc
16ddJJ)
(16b-LL
16cc)
(16a
16b-JJ)
=25
(16gLL
16a)
16f
16gJJ
16fLL
16e-
16d
16cJJ
=26
(16B-LL
16A)
(16A
16cJJ)
(16cLL
16B-)
16A
16cJJ
=27
4.B-
8f
=28:|!
4.B-
*>D
8g
*>eM
*-
!!!Genre:	Freylekhs
!!!Mode:	Minor
!!!Listening/dance:	listening
!!!One_Mode:	yes
**kern
*I"P1
*clefG2
*k[b-e-]
*-
!!!Genre:	Skotshne
!!!Mode:	Minor
!!!Listening/dance:	listening
!!!:	*B-:
!!!One_Mode:	no
**kern
*I"P1
*clefG2
*k[b-e-]
*-
!!!Genre:	Skotshne
!!!Mode:	Minor
!!!Listening/dance:	listening
!!!:	*B-:
!!!One_Mode:	no
**kern
*I"P1
*clefG2
*k[b-e-]
*B-:
=13!|:
*>C
[4b-
16b-LL]
16f
16b-
16ddJJ
=14
[4cc
8ccL]
8ggJ
=15
(16ggLL
16ff)
(16ff
16ee-JJ)
(16ee-LL
16dd)
(16dd
16ffJJ)
=16
(16ffLL
16ee-)
(16ee-
16ddJJ)
(16ddLL
16cc)
(16cc
16b-JJ)
=17:|!
(16ggLL
16ff)
(16ff
16ee-JJ)
(16ee-LL
16dd)
(16dd
16ccJJ)
=18
16ccLL
16ddJJ
4b-
8r
*>eM
*-
!!!Genre:	Skotshne
!!!Mode:	Minor
!!!Listening/dance:	listening
!!!One_Mode:	yes
**kern
*I"P1
*clefG2
*k[b-e-]
*-
!!!Genre:	Skotshne
!!!Mode:	Minor
!!!Listening/dance:	listening
!!!:	*G:frey
!!!One_Mode:	no
**kern
*I"P1
*clefG2
*k[b-e-]
*-
!!!Genre:	Skotshne
!!!Mode:	Minor
!!!Listening/dance:	listening
!!!One_Mode:	yes
**kern
*I"P1
*clefG2
*k[b-e-]
*-
!!!Genre:	Skotshne
!!!Mode:	Minor
!!!Listening/dance:	listening
!!!:	*g:dor; *G:; *g:dor
!!!One_Mode:	no
**kern
*I"P1
*clefG2
*k[b-e-]
*-
!!!Genre:	Skotshne
!!!Mode:	Minor
!!!Listening/dance:	listening
!!!:	*B-:
!!!One_Mode:	no
**kern
*I"P1
*clefG2
*k[b-e-]
*B-:
=18!|:
*>C
4.dd
8cc
=19
4.b-
8cc
=20
16ddLL
16ee-
16dd
16ee-JJ
8ddL
8ccJ
=21
4.b-
8cc
=22
16.ddLL
32ee-k
16.dd
32ee-JJk
8ddL
8ccJ
=23
8ddL
8ee-
8ff
8ee-J
=24
16ddLL
16ee-
16dd
16ee-JJ
8ddL
8ccJ
=25
4b-
4r
*>eM
*-
!!!Genre:	Freylekhs
!!!Mode:	Minor
!!!Listening/dance:	listening
!!!One_Mode:	yes
**kern
*I"P1
*clefG2
*k[b-e-]
*-
!!!Genre:	Skotshne
!!!Mode:	Minor
!!!Listening/dance:	listening
!!!:	*B-:
!!!One_Mode:	no
**kern
*I"P1
*clefG2
*k[b-e-]
*B-:
=9:|!|:
*>B
16b-LL
(16d
16f)
(16b-JJ
16ddLL)
(16f
16b-)
(16ddJJ
=10
16ffLL)
(16een
16gg)
(16ffJJ
16bb-LL)
16aa'
16gg'
16ff'JJ
=11
(16ee-XLL
16dd)
16cc
16ddJJ
16ee-LL
16dd
16ff
16ddJJ
=12
4.cc
8b-
=13
16aLL
(16f
16a)
(16ccJJ
16ee-LL)
(16a
16cc)
(16ee-JJ
=14
16aaLL)
16gg
16ff
16ee-JJ
16ddLL
16cc
16b-
16aJJ
=15
8fL
(16aaL
16ggJJ)
16ffLL
16ee-
16dd
16ccJJ
=16
(16ccLL
16ddJJ
4b-)
8f
=17:|!
(16ccLL
16ddJJ)
4b-
*>C
8a
*>eM
*-
!!!Genre:	Skotshne
!!!Mode:	Minor
!!!Listening/dance:	listening
!!!:	*B-:
!!!One_Mode:	no
**kern
*I"P1
*clefG2
*k[b-e-]
*B-:
=22!|:
*>C
16B-LL
(16b-
16a)
16b-JJ
16dd'LL
(16b-
16a)
16b-'JJ
=23
16ff'LL
(16b-
16a)
16b-'JJ
16dd'LL
(16b-
16a)
16b-'JJ
=24
16b-'LL
16ff'
16een'
16ff'JJ
16ee-X'LL
16ff'
16dd'
16ff'JJ
=25
16dd-X'LL
16ff'
16cc'
16ff'JJ
16bn'LL
16ff'
16b-X'
16ff'JJ
=26
16aLL
(16f
16g)
(16aJJ
16b-LL)
(16cc
16ddn)
(16ee-JJ
=27
16ffLL)
(16gg
16aa-X)
(16ggJJ
16ffLL)
(16ee-
16dd)
(16ccJJ
=28
(16b-LL)
16f)
(16f
16b-JJ)
(16b-LL
16a-X)
(16a-
16gJJ)
=29
4.g
8r
=30:|!
16aLL
(16aa
16gg)
(16ffJJ
16ee-LL)
(16cc
16a)
16ccJJ
=31
(16ccLL
16b-JJ)
4b-
8r
*>eM
*-
!!!Genre:	Skotshne
!!!Mode:	Minor
!!!Listening/dance:	listening
!!!:	*B-:
!!!One_Mode:	no
**kern
*I"P1
*clefG2
*k[b-e-]
*B-:
=13!|:
*>C
8b-L
16ddL
16ffJJ
(16bb-LL
16aa)
16gg
16ffJJ
=14
(16ggLL
16ff)
16ee-
16ddJJ
(16ee-LL
16dd)
16cc
16b-JJ
=15
(16aLL
16f)
16a
16ccJJ
8.ffL
16ee-Jk
=16
(16ee-LL
16ddJJ)
4dd
8dd
=17:|!
(16aLL
16f)
16a
16ccJJ
8.ffL
16aJk
=18
(16ccLL
16b-JJ)
4b-
8b-
*>eM
*-
!!!Genre:	Skotshne
!!!Mode:	Minor
!!!Listening/dance:	listening
!!!:	*B-:
!!!One_Mode:	no
**kern
*I"P1
*clefG2
*k[b-e-]
*B-:
=9!|:
(8.b-L
16ddJk)
(8qgg/
8ffL)
(8qff/
8ee-J)
=10
4.ddt
16ccLL
16b-JJ
=11
4b-
(8ffL
8ee-J
=12
4dd)
8r
(16ccLL
16b-JJ)
=13
8.b-L
16fJk
(16b-LL
16cc)
(16cc
16ddJJ)
=14
(16ddLL
16ff)
(16ff
16ddJJ)
(16ddLL
16ee-)
(16ee-
16ccJJ)
=15
(16ccLL
8qee-/
16dd)
(16dd
16b-JJ)
(16b-LL
8qdd/
16cc)
(16cc
16aJJ)
=16
4b-
4dd
=:|!
*>eM
*-
!!!Genre:	Skotshne
!!!Mode:	Altered Dorian
!!!Listening/dance:	listening
!!!:	*G:
!!!One_Mode:	no
**kern
*I"P1
*clefG2
*k[b-]
*-
!!!Genre:	Skotshne
!!!Mode:	Altered Dorian
!!!Listening/dance:	listening
!!!:	*G:frey; *C:; *G:frey
!!!One_Mode:	no
**kern
*I"P1
*clefG2
*k[b-]
*-
!!!Genre:	Skotshne
!!!Mode:	Altered Dorian
!!!Listening/dance:	listening
!!!:	*g:
!!!One_Mode:	no
**kern
*I"P1
*clefG2
*k[b-e-]
*>bM
*-
!!!Genre:	Skotshne
!!!Mode:	Altered Dorian
!!!Listening/dance:	listening
!!!:	*G:
!!!One_Mode:	no
**kern
*I"P1
*clefG2
*k[b-]
*-
!!!Genre:	Freylekhs (fun der khupe)
!!!Mode:	Altered Dorian
!!!Listening/dance:	listening
!!!One_Mode:	no
**kern
*clefG2
*k[b-]
*-
!!!Genre:	Skotshne
!!!Mode:	Altered Dorian
!!!Listening/dance:	listening
!!!One_Mode:	yes
**kern
*I"P1
*clefG2
*k[b-]
*-
!!!Genre:	Skotshne
!!!Mode:	Altered Dorian
!!!Listening/dance:	listening
!!!One_Mode:	yes
**kern
*I"P1
*clefG2
*k[b-]
*-
!!!Genre:	Gas-nign
!!!Mode:	Freygish
!!!Listening/dance:	listening
!!!One_Mode:	no
**kern
*I"P1
*clefG2
*k[b-e-a-]
*-
!!!Genre:	Gas-nign
!!!Mode:	Freygish
!!!Listening/dance:	listening
!!!:	*F:
!!!One_Mode:	no
**kern
*I"P1
*clefG2
*k[b-e-a-]
*-
!!!Genre:	Gas-nign
!!!Mode:	Freygish
!!!Listening/dance:	listening
!!!:	*F:
!!!One_Mode:	no
**kern
*I"P1
*clefG2
*k[b-e-a-]
*-
!!!Genre:	Gas-nign
!!!Mode:	Freygish
!!!Listening/dance:	listening
!!!One_Mode:	yes
**kern
*I"P1
*clefG2
*k[b-e-a-]
*-
!!!Genre:	Gas-nign
!!!Mode:	Freygish
!!!Listening/dance:	listening
!!!:	*F:
!!!One_Mode:	no
**kern
*I"P1
*clefG2
*k[b-e-a-]
*-
!!!Genre:	Gas-nign
!!!Mode:	Freygish
!!!Listening/dance:	listening
!!!One_Mode:	yes
**kern
*I"P1
*clefG2
*k[b-e-a-]
*-
!!!Genre:	Gas-nign
!!!Mode:	Freygish
!!!Listening/dance:	listening
!!!One_Mode:	yes
**kern
*I"P1
*clefG2
*k[b-e-a-]
*-
!!!Genre:	Gas-nign
!!!Mode:	Freygish
!!!Listening/dance:	listening
!!!One_Mode:	yes
**kern
*I"P1
*clefG2
*k[b-e-a-]
*-
!!!Genre:	Gas-nign
!!!Mode:	Freygish
!!!Listening/dance:	listening
!!!:	*g:
!!!One_Mode:	no
**kern
*I"P1
*clefG2
*k[b-e-a-]
*-
!!!Genre:	Gas-nign
!!!Mode:	Freygish
!!!Listening/dance:	listening
!!!:	*C:
!!!One_Mode:	no
**kern
*I"P1
*clefG2
*k[b-e-a-]
*-
!!!Genre:	Gas-nign
!!!Mode:	Minor
!!!Listening/dance:	listening
!!!:	*B-:
!!!One_Mode:	no
**kern
*I"P1
*clefG2
*k[b-e-]
*>bM
*B-:
=17:|!|:
*>C
(16qqf/LL
16qqg/
16qqa/JJ
4b-)
4dd
4cc
4b-
=18
(16ffLL
16gg
16ff
16ggJJ)
(8ffL
24ee-L
24dd
24ee-JJ)
4.dd
8ff
=19
(12bb-L
12aa)
12bb-J
(8qgg/
12ffL)
12een
12ffJ
(8qeen/
12ddL)
12cc#X
12ddJ
24cc#LL
24een
24dd
24cc#
24b-
24cc#JJ
=20
(16ddLL
16ee-X
16dd
16ee-JJ)
(8ddL
24ccnL
24b-
24ccJJ)
4.b-
8ff
=21
(8.bb-L
16aaJk)
(8.aaL
16ggJk)
(8.ggL
16ffJk)
(8.ffL
16ee-Jk)
=22
(8.ee-L
16ddJk)
8.ddL
16ccJk
4cc
24ee-LL
24dd
24cc
24b-
24a
24gJJ
=23
4f
(8.gTL
16fJk)
(8qa/
8.gL)
16fJk
(8ddL
24ccL
24b-
24ccJJ)
=24
8b-L
(8qcc/
8b-)
(8qcc/
8b-)
(8qcc/
8b-J)
(8qcc/
2b-)
*>eM
*-
!!!Genre:	Gas-nign
!!!Mode:	Minor
!!!Listening/dance:	listening
!!!:	*B-:
!!!One_Mode:	no
**kern
*I"P1
*clefG2
*k[b-e-]
*B-:
=9||
*>B
4f
4b-
4cc
=10
2dd
8ccL
8b-J
=11
8ffL
8ee-
8ff
8ee-
8ff
8ee-J
=12
2dd
8ccL
8b-J
=13
4f
4b-
4cc
=14
2dd
8ccL
8b-J
=15
8aL
8b-
8cc
8dd
8a
8ccJ
=16
4b-
4r
4r
*>eM
*-
!!!Genre:	Gas-nign
!!!Mode:	Minor
!!!Listening/dance:	listening
!!!:	*B-:
!!!One_Mode:	no
**kern
*I"P1
*clefG2
*k[b-e-]
*B-:
=20!|:
*>C
[4dd
16ddLL]
16a
(8qcc/
16b-)
16gJJ
=21
2f
=22
16b-LL
(16dd
16cc)
(16ee-JJ
16ddLL)
(16ff
16ee-)
(16ggJJ
=23
16dddLL)
(16aa
16bb-)
16ggJJ
(16ffLL
16dd)
16ee-
16ggJJ
=24
(8qgg/
16ffLL)
16ee-
16dd
16ccJJ
4b-
=25
(16ccLL
16f
16cc
16fJJ
16ccLL)
16ee-
16dd
16ccJJ
=26
16ccLL
16b-JJ
4b-
8f
=27:|!
16ccLL
16b-JJ
4b-
8g
*>eM
*-
!!!Genre:	Gas-nign
!!!Mode:	Minor
!!!Listening/dance:	listening
!!!One_Mode:	yes
**kern
*I"P1
*clefG2
*k[b-e-]
*-
!!!Genre:	Gas-nign
!!!Mode:	Minor
!!!Listening/dance:	listening
!!!One_Mode:	yes
**kern
*I"P1
*clefG2
*k[b-e-]
*-
!!!Genre:	Gas-nign
!!!Mode:	Minor
!!!Listening/dance:	listening
!!!One_Mode:	yes
**kern
*I"P1
*clefG2
*k[b-e-]
*-
!!!Genre:	Gas-nign
!!!Mode:	Minor
!!!Listening/dance:	listening
!!!One_Mode:	yes
**kern
*I"P1
*clefG2
*k[b-e-]
*-
!!!Genre:	Gas-nign
!!!Mode:	Minor
!!!Listening/dance:	listening
!!!:	*B-
!!!One_Mode:	no
**kern
*I"P1
*clefG2
*k[b-e-]
*B-:
=8:|!
*>B
8fL
8b-J
(16ddLL
16ffJJ)
=9
8ee-L
8ddJ
(16ccLL
16b-JJ)
=10
16ffLL
16ggJJ
16ffLL
16ggJJ
16ffLL
16ggJJ
=11
8ffL
8ee-J
(16ddLL
16ccJJ)
=12
4b-
(16ddLL
16ffJJ)
=13
8ee-L
8ddJ
16ccLL
16b-JJ
=14
8ccL
8ccJ
(8qcc/
16b-LL)
16aJJ
=15
4b-
8r
*>eM
==
*-
!!!Genre:	A gute nakht
!!!Mode:	Freygish
!!!Listening/dance:	listening
!!!One_Mode:	yes
**kern
*I"P1
*clefG2
*k[b-e-a-]
*-
!!!Genre:	A gute nakht
!!!Mode:	Minor
!!!Listening/dance:	listening
!!!One_Mode:	yes
**kern
*I"P1
*clefG2
*k[b-e-]
*-
!!!Genre:	Zay gezunt
!!!Mode:	Freygish
!!!Listening/dance:	listening
!!!One_Mode:	yes
**kern
*I"P1
*clefG2
*k[b-e-a-]
*-
!!!Genre:	Zay gezunt
!!!Mode:	Freygish
!!!Listening/dance:	listening
!!!:	*c:
!!!One_Mode:	no
**kern
*I"P1
*clefG2
*k[b-e-a-]
*-
!!!Genre:	Zay gezunt
!!!Mode:	Minor
!!!Listening/dance:	listening
!!!One_Mode:	yes
**kern
*I"P1
*clefG2
*k[b-e-]
*-
!!!Genre:	Zay gezunt
!!!Mode:	Minor
!!!Listening/dance:	listening
!!!One_Mode:	yes
**kern
*I"P1
*clefG2
*k[b-e-]
*-
**kern
*I"P1
!!pagebreak:original
*clefG2
*k[b-e-a-]
*-
!!!Genre:	Freylekhs
!!!Mode:	Freygish
!!!Listening/dance:	dance
!!!One_Mode:	yes
**kern
*part1
*staff1
*clefG2
*-
!!!Genre:	Freylekhs
!!!Mode:	Freygish
!!!Listening/dance:	dance
!!!:	*F:
!!!One_Mode:	no
**kern
*part1
*staff1
*clefG2
*k[b-e-a-]
*-
!!!Genre:	Freylekhs
!!!Mode:	Freygish
!!!Listening/dance:	dance
!!!:	*c:
!!!One_Mode:	no
**kern
*part1
*staff1
*clefG2
*k[b-e-a-]
*-
!!!Genre:	Tants
!!!Mode:	Freygish
!!!Listening/dance:	dance
!!!One_Mode:	yes
**kern
*part1
*staff1
*clefG2
*k[b-e-a-]
*-
!!!Genre:	Freylekhs
!!!Mode:	Freygish
!!!Listening/dance:	dance
!!!:	*C:
!!!One_Mode:	no
**kern
*part1
*staff1
*clefG2
*k[b-e-a-]
*-
!!!Genre:	Freylekhs
!!!Mode:	Freygish
!!!Listening/dance:	dance
!!!One_Mode:	yes
**kern
*part1
*staff1
*clefG2
*k[b-e-a-]
*-
!!!Genre:	Freylekhs
!!!Mode:	Freygish
!!!Listening/dance:	dance
!!!One_Mode:	yes
**kern
*part1
*staff1
*clefG2
*k[b-e-a-]
*-
!!!Genre:	Skotshne
!!!Mode:	Freygish
!!!Listening/dance:	dance
!!!One_Mode:	yes
**kern
*part1
*staff1
*clefG2
*k[b-e-a-]
*-
!!!Genre:	Freylekhs
!!!Mode:	Freygish
!!!Listening/dance:	dance
!!!One_Mode:	yes
**kern
*part1
*staff1
*clefG2
*k[b-e-a-]
*-
!!!Genre:	Freylekhs
!!!Mode:	Freygish
!!!Listening/dance:	dance
!!!:	*c
!!!One_Mode:	no
**kern
*part1
*staff1
*clefG2
*k[b-e-a-]
*-
!!!Genre:	Freylekhs
!!!Mode:	Freygish
!!!Listening/dance:	dance
!!!One_Mode:	yes
**kern
*part1
*staff1
*clefG2
*k[b-e-a-]
*-
!!!Genre:	Freylekhs
!!!Mode:	Freygish
!!!Listening/dance:	dance
!!!One_Mode:	no
**kern
*part1
*staff1
*clefG2
*k[b-e-a-]
*-
!!!Genre:	Freylekhs
!!!Mode:	Freygish
!!!Listening/dance:	dance
!!!One_Mode:	yes
**kern
*part1
*staff1
*clefG2
*k[b-e-a-]
*-
!!!Genre:	Hopke
!!!Mode:	Freygish
!!!Listening/dance:	dance
!!!One_Mode:	yes
**kern
*part1
*staff1
*clefG2
*k[b-e-a-]
*-
!!!Genre:	Freylekhs
!!!Mode:	Freygish
!!!Listening/dance:	dance
!!!One_Mode:	yes
**kern
*part1
*staff1
*clefG2
*k[b-e-a-]
*-
**kern
!!pagebreak:original
*clefG2
*k[f#]
*-
!!!Genre:	Hopke
!!!Mode:	Freygish
!!!Listening/dance:	dance
!!!:	*F:; *C:
!!!One_Mode:	no
**kern
*part1
*staff1
*clefG2
*k[b-e-a-]
*-
!!!Genre:	Freylekhs
!!!Mode:	Freygish
!!!Listening/dance:	dance
!!!:	*F:
!!!One_Mode:	no
**kern
*part1
*staff1
*clefG2
*k[b-e-a-]
*-
!!!Genre:	Freylekhs
!!!Mode:	Freygish
!!!Listening/dance:	dance
!!!:	*B-:
!!!One_Mode:	no
**kern
*part1
*staff1
*clefG2
*k[b-e-a-]
*B-:
=13
8ccL
(>16ddL
16ccJJ)
8b-L
(>16ccL
16b-JJ)
=14
4.a
8a
=15
8aL
8f
8g
8aJ
=16
4.b-
8b-
*>eM
*-
!!!Genre:	Skotshne
!!!Mode:	Altered Dorian
!!!Listening/dance:	dance
!!!One_Mode:	yes
**kern
*part1
*staff1
*clefG2
*k[b-]
*-
!!!Genre:	Freylekhs
!!!Mode:	Altered Dorian
!!!Listening/dance:	dance
!!!One_Mode:	yes
**kern
*part1
*staff1
*clefG2
*k[b-]
*-
!!!Genre:	Karahod
!!!Mode:	Altered Dorian
!!!Listening/dance:	dance
!!!One_Mode:	yes
**kern
*part1
*staff1
*clefG2
*k[b-]
*-
!!!Genre:	Freylekhs
!!!Mode:	Altered Dorian
!!!Listening/dance:	dance
!!!One_Mode:	yes
**kern
*part1
*staff1
*clefG2
*k[b-]
*-
!!!Genre:	Skotshne
!!!Mode:	Altered Dorian
!!!Listening/dance:	dance
!!!One_Mode:	yes
**kern
*part1
*staff1
*clefG2
*k[b-]
*-
!!!Genre:	Freylekhs
!!!Mode:	Altered Dorian
!!!Listening/dance:	dance
!!!One_Mode:	yes
**kern
*part1
*staff1
*clefG2
*k[b-]
*-
!!!Genre:	Freylekhs
!!!Mode:	Altered Dorian
!!!Listening/dance:	dance
!!!:	*B-:
!!!One_Mode:	no
**kern
*part1
*staff1
*clefG2
*k[b-]
*B-:
=19!|:
*>C
*k[b-e-]
8r
(<24fLL
24g
24fJJ
8enL
8fJ)
=20
8b-'L
8f'
8dd'
8f'J
=21
8ee-'L
8f'
8dd'
8f'J
=22
24cc^LL
24dd
24cc#XJ
8b-J
(>8dd^L
8b-J)
=23
8r
(<24fLL
24g
24fJJ
8enL
8fJ)
=24
8b-'L
8f'
8dd'
8f'J
=25
8ee-'L
8f'J
8dd'L
8b-'J
=26
16ccLL
16dd
16ccX
16aJJ
4b-
=27:|!
4ee-
4dd
=28
(>16ccLL
16dd
16cc
16aJJ)
8b-L
8ddJ
*>eM
==
*-
!!!Genre:	Freylekhs
!!!Mode:	Altered Dorian
!!!Listening/dance:	dance
!!!:	*G:
!!!One_Mode:	no
**kern
*part1
*staff1
*clefG2
*k[b-]
*-
!!!Genre:	Skotshne
!!!Mode:	Altered Dorian
!!!Listening/dance:	dance
!!!:	*G:
!!!One_Mode:	no
**kern
*part1
*staff1
*clefG2
*k[b-]
*-
!!!Genre:	Freylekhs
!!!Mode:	Altered Dorian
!!!Listening/dance:	dance
!!!:	*g:; *G:; *g:
!!!One_Mode:	no
**kern
*part1
*staff1
*clefG2
*k[b-e-]
*>bM
*-
!!!Genre:	Skotshne
!!!Mode:	Altered Dorian
!!!Listening/dance:	dance
!!!:	*G:
!!!One_Mode:	no
**kern
*part1
*staff1
*clefG2
*k[b-]
*-
!!!Genre:	Skotshne
!!!Mode:	Altered Dorian
!!!Listening/dance:	dance
!!!:	*G:
!!!One_Mode:	no
**kern
*part1
*staff1
*clefG2
*k[b-]
*-
!!!Genre:	Freylekhs
!!!Mode:	Altered Dorian
!!!Listening/dance:	dance
!!!:	*G:
!!!One_Mode:	no
**kern
*part1
*staff1
*clefG2
*k[b-]
*-
!!!Genre:	Freylekhs
!!!Mode:	Altered Dorian
!!!Listening/dance:	dance
!!!One_Mode:	yes
**kern
*part1
*staff1
*clefG2
*k[b-]
*-
!!!Genre:	Freylekhs
!!!Mode:	Altered Dorian
!!!Listening/dance:	dance
!!!:	*G:
!!!One_Mode:	no
**kern
*part1
*staff1
*clefG2
*k[b-]
*-
!!!Genre:	Freylekhs
!!!Mode:	Altered Dorian
!!!Listening/dance:	dance
!!!One_Mode:	yes
**kern
*part1
*staff1
*clefG2
*k[b-]
*-
!!!Genre:	Freylekhs (Karahod)
!!!Mode:	Minor
!!!Listening/dance:	dance
!!!One_Mode:	no
**kern
*I"P1
*clefG2
*k[b-e-]
*B-:
8dd
=1
(16ddLL
16ee-)
(16ee-
16ddJJ)
(16ddLL
16ee-)
(16ee-
16ddJJ)
=2
(16ddLL
16ee-)
(16ee-
16ddJJ)
(8ddL
16ccL
16b-JJ)
=3
8.ccL
16b-Jk
16ffLL
16ee-
16dd
16ee-JJ
=4
4.dd
=5:|!
8.ccLL
16b-JJ
16ddLL
16cc
16b-
16aJJ
=6
4.b-
*>eM
*B-:
==12
*>C
8fn
=13
4.ff
8ee-
=14
4.dd
(16ccLL
16b-JJ)
=15
8.ccL
16b-Jk
16ffLL
16ee-
16dd
16ee-JJ
=16
4.dd
8ff
=17
16ffLL
16gg
16aa-X
16ggJJ
16aa-LL
16ggJ
8ffJ
=18
16aa-XLL
16gg
16ff
16ee-JJ
8ddL
16ccL
16b-JJ
=19
8.ccL
16b-Jk
16ffLL
16ee-
16dd
16ee-JJ
=20
4.dd
16ccLL
16b-JJ
=21
[8ccL
16ccL]
16b-JJ
16ddLL
16cc
16b-
16aJJ
=22
4.b-
*>eM
==
*-
!!!Genre:	Freylekhs
!!!Mode:	Minor
!!!Listening/dance:	dance
!!!One_Mode:	yes
**kern
*I"P1
*clefG2
*k[b-e-]
*-
!!!Genre:	Skotshne
!!!Mode:	Minor
!!!Listening/dance:	dance
!!!One_Mode:	yes
**kern
*I"P1
*clefG2
*k[b-e-]
*-
!!!Genre:	Skotshne
!!!Mode:	Minor
!!!Listening/dance:	dance
!!!One_Mode:	no
**kern
*I"P1
*clefG2
*k[b-e-]
*B-:
=29
4ff
4cc
=30
8dd
4cc
8cc
=31
8ffL
8ff
8cc
8ccJ
=32
8dd
4cc
8cc
=33
16ffLL
16ff
16ff
16ffJJ
16ee-LL
16ee-
16ee-
16ee-JJ
=34
16ddLL
16dd
16dd
16ddJJ
16ccLL
16cc
16cc
16ccJJ
=35
8b-L
8b-J
16ccLL
16b-
16cc
16ddJJ
=36
2b-
*>eM
*-
!!!Genre:	Freylekhs
!!!Mode:	Minor
!!!Listening/dance:	dance
!!!One_Mode:	yes
**kern
*I"P1
*clefG2
*k[b-e-]
*-
!!!Genre:	Freylekhs
!!!Mode:	Freygish
!!!Listening/dance:	dance
!!!:	*c:dor
!!!One_Mode:	no
**kern
*I"P1
*clefG2
*k[b-e-]
*>bM
*-
!!!Genre:	Freylekh
!!!Mode:	Minor
!!!Listening/dance:	dance
!!!:	*B-:
!!!One_Mode:	no
**kern
*I"P1
*clefG2
*k[b-e-]
*B-:
=10!|:
*>B
8f
4b-
8cc
=11
4dd
4ee-
=12
(16dd^LL
16ee-J
8ddJ)
(16cc^LL
16ddJ
8ccJ)
=13
(16b-^LL
16ccJ
8b-J)
4f
=14
8f
4b-
8cc
=15
4dd
4ee-
=16
8ddL
16ccL
16ddJJ
8ccL
8b-J
=17
2ff
=18:|!
2b-
*>eM
*-
!!!Genre:	Freylekhs
!!!Mode:	Minor
!!!Listening/dance:	dance
!!!One_Mode:	yes
**kern
*I"P1
*clefG2
*k[b-e-]
*-
!!!Genre:	Freylekhs
!!!Mode:	Minor
!!!Listening/dance:	dance
!!!:	*g:dor; *B-:
!!!One_Mode:	no
**kern
*I"P1
*clefG2
*k[b-e-]
*B-:
=17!|:
*>C
(4.b-
8f)
=18
(4.b-
8f)
=19
8b-L
8f
8b-
8fJ
=20
8b-L
8fJ
4b-
=21
8b-L
8cc
8dd
8ee-J
=22
(8ddtL
8cc)
(8ccT
8b-J)
=23
8b-L
8cc
8dd
8ee-J
=24
8ddtL
8cc
8ccT
8b-J
=25
8b-L
8cc
8dd
8ee-J
=26
8ffL
8dd
8ee-
8ccJ
=27
8ddL
8b-J
(8ffL
24ee-L
24dd
24ee-JJ)
=28
2dd
=29:|!
8ddL
8b-
8cc
8aJ
=30
2b-
*>eM
*-
!!!Genre:	Freylekhs
!!!Mode:	Minor
!!!Listening/dance:	dance
!!!One_Mode:	yes
**kern
*I"P1
*clefG2
*k[b-e-]
*-
!!!Genre:	Freylekhs
!!!Mode:	Minor
!!!Listening/dance:	dance
!!!:	*g:dor
!!!One_Mode:	no
**kern
*I"P1
*clefG2
*k[b-e-]
*-
!!!Genre:	Freylekhs
!!!Mode:	Minor
!!!Listening/dance:	dance
!!!One_Mode:	yes
**kern
*I"P1
*clefG2
*k[b-e-]
*-
!!!Genre:	Freylekhs
!!!Mode:	Minor
!!!Listening/dance:	dance
!!!:	*B-:
!!!One_Mode:	no
**kern
*I"P1
*clefG2
*k[b-e-]
*>bM
*B-:
*M2/4
*>A
8f
=1
16b-LL
16ccJJ
4dd
8dd
=2
8r
8dd
4dd
=3
16ddLL
16cc
16ff
16ee-JJ
16ee-LL
16dd
16dd
16ccJJ
=4
8.ddL
16ccJk
16ddLL
16ccJ
8b-J
=5
16b-LL
16ccJJ
4dd
8dd
=6
8r
8dd
4dd
=7
16ddLL
16cc
16ff
16ee-JJ
16ee-LL
16dd
16dd
16ccJJ
=8
8.ddL
16ccJk
16ddLL
16ccJ
8b-J
*>eM
*-
!!!Genre:	Skotshne
!!!Mode:	Minor
!!!Listening/dance:	dance
!!!One_Mode:	yes
**kern
*I"P1
*clefG2
*k[b-e-]
*-
!!!Genre:	Freylekhs
!!!Mode:	Minor
!!!Listening/dance:	dance
!!!:	*G:frey
!!!One_Mode:	no
**kern
*I"P1
*clefG2
*k[b-e-]
*-
!!!Genre:	Freylekhs
!!!Mode:	Minor
!!!Listening/dance:	dance
!!!One_Mode:	yes
**kern
*I"P1
*clefG2
*k[b-e-]
*-
!!!Genre:	Vol'ner (Freylekhs)
!!!Mode:	Minor
!!!Listening/dance:	dance
!!!One_Mode:	yes
**kern
*I"P1
*clefG2
*k[b-e-]
*-
!!!Genre:	Freylekhs
!!!Mode:	Minor
!!!Listening/dance:	dance
!!!One_Mode:	yes
**kern
*I"P1
*clefG2
*k[b-e-]
*-
!!!Genre:	Freylekhs
!!!Mode:	Minor
!!!Listening/dance:	dance
!!!One_Mode:	yes
**kern
*I"P1
*clefG2
*k[b-e-]
*-
!!!Genre:	Freylekhs
!!!Mode:	Minor
!!!Listening/dance:	dance
!!!One_Mode:	yes
**kern
*I"P1
*clefG2
*k[b-e-]
*-
!!!Genre:	Freylekhs
!!!Mode:	Minor
!!!Listening/dance:	dance
!!!One_Mode:	yes
**kern
*I"P1
*clefG2
*k[b-e-]
*-
!!!Genre:	Freylekhs
!!!Mode:	Minor
!!!Listening/dance:	dance
!!!One_Mode:	yes
**kern
*I"P1
*clefG2
*k[b-e-]
*-
!!!Genre:	Freylekhs
!!!Mode:	Minor
!!!Listening/dance:	dance
!!!One_Mode:	yes
**kern
*I"P1
*clefG2
*k[b-e-]
*-
!!!Genre:	Freylekhs
!!!Mode:	Minor
!!!Listening/dance:	dance
!!!:	*B-:
!!!One_Mode:	no
**kern
*I"P1
*clefG2
*k[b-e-]
*B-:
=10!|:
4b-
8ffL
8ee-J
=11
4.dd
8cc
=12
16b-LL
16b-
16b-
16b-JJ
8ffL
8ee-J
=13
4.dd
8cc
=14
8.b-L
16fJk
16b-LL
16cc
16dd
16ee-JJ
=15
16ffLL
16ff
16ff
16ddJJ
16ee-LL
16ee-
16ee-
16ccJJ
=16
16ddLL
16dd
16dd
16b-JJ
16ccLL
16cc
16cc
16aJJ
=17
4b-
16ddLL
16cc
16b-
16aJJ
=:|!
*>eM
*-
!!!Genre:	Freylekhs
!!!Mode:	Minor
!!!Listening/dance:	dance
!!!One_Mode:	yes
**kern
*I"P1
*clefG2
*k[b-e-]
*-
!!!Genre:	Freylekhs
!!!Mode:	Minor
!!!Listening/dance:	dance
!!!One_Mode:	yes
**kern
*I"P1
*clefG2
*k[b-e-]
*-
!!!Genre:	Freylekhs
!!!Mode:	Minor
!!!Listening/dance:	dance
!!!One_Mode:	yes
**kern
*I"P1
*clefG2
*k[b-e-]
*-
!!!Genre:	Freylekhs
!!!Mode:	Minor
!!!Listening/dance:	dance
!!!One_Mode:	yes
**kern
*I"P1
*clefG2
*k[b-e-]
*-
!!!Genre:	Skotshne
!!!Mode:	Minor
!!!Listening/dance:	dance
!!!One_Mode:	yes
**kern
*I"P1
*clefG2
*k[b-e-]
*-
!!!Genre:	Freylekhs
!!!Mode:	Major
!!!Listening/dance:	dance
!!!:	*g:dor
!!!One_Mode:	no
**kern
*I"P1
*clefG2
*k[f#]
*-
!!!Genre:	Freylekhs
!!!Mode:	Major
!!!Listening/dance:	dance
!!!:	*g:dor
!!!One_Mode:	no
**kern
*I"P1
*clefG2
*k[f#]
*-
!!!Genre:	Skotshne
!!!Mode:	Major
!!!Listening/dance:	dance
!!!:	*g:dor
!!!One_Mode:	no
**kern
*I"P1
*clefG2
*k[f#]
*-
!!!Genre:	Freylekhs
!!!Mode:	Major
!!!Listening/dance:	dance
!!!:	*g:dor
!!!One_Mode:	no
**kern
*I"P1
*clefG2
*k[f#]
*-
!!!Genre:	Freylekhs
!!!Mode:	Major
!!!Listening/dance:	dance
!!!:	*g:dor; *G:frey
!!!One_Mode:	no
**kern
*I"P1
*clefG2
*k[f#]
*-
!!!Genre:	Freylekhs
!!!Mode:	Major (Mixolydian)
!!!Listening/dance:	dance
!!!:	*g:dor
!!!One_Mode:	no
**kern
*I"P1
*clefG2
*k[]
*-
!!!Genre:	Freylekhs
!!!Mode:	Major
!!!Listening/dance:	dance
!!!:	*g:dor
!!!One_Mode:	no
**kern
*I"P1
*clefG2
*k[f#]
*-
!!!Genre:	Hopke
!!!Mode:	Major
!!!Listening/dance:	dance
!!!One_Mode:	yes
**kern
*I"P1
*clefG2
*k[f#]
*-
!!!Genre:	Freylekhs
!!!Mode:	Major
!!!Listening/dance:	dance
!!!One_Mode:	no
**kern
*I"P1
*clefG2
*k[f#]
*-
!!!Genre:	Freylekhs
!!!Mode:	Major
!!!Listening/dance:	dance
!!!One_Mode:	yes
**kern
*I"P1
*clefG2
*k[f#]
*-
!!!Genre:	Skotshne
!!!Mode:	Major
!!!Listening/dance:	dance
!!!One_Mode:	yes
**kern
*I"P1
*clefG2
*k[f#]
*-
!!!Genre:	Freylekhs
!!!Mode:	Major
!!!Listening/dance:	dance
!!!One_Mode:	yes
**kern
*I"P1
*clefG2
*k[f#]
*-
!!!Genre:	Hopke
!!!Mode:	Major
!!!Listening/dance:	dance
!!!One_Mode:	yes
**kern
*I"P1
*clefG2
*k[f#]
*-
!!!Genre:	Skotshne
!!!Mode:	Major
!!!Listening/dance:	dance
!!!One_Mode:	yes
**kern
*I"P1
*clefG2
*k[f#]
*-
!!!Genre:	Skotshne
!!!Mode:	Major
!!!Listening/dance:	dance
!!!One_Mode:	yes
**kern
*I"P1
*clefG2
*k[f#]
*-
!!!Genre:	Freylekhs
!!!Mode:	Major
!!!Listening/dance:	dance
!!!:	*D:
!!!One_Mode:	no
**kern
*I"P1
*clefG2
*k[f#]
*-
!!!Genre:	Freylekhs
!!!Mode:	Major
!!!Listening/dance:	dance
!!!:	*g:
!!!One_Mode:	no
**kern
*I"P1
*clefG2
*k[f#]
*-
!!!Genre:	Freylekhs
!!!Mode:	Major
!!!Listening/dance:	dance
!!!:	*g:
!!!One_Mode:	no
**kern
*I"P1
*clefG2
*k[f#]
*-
!!!Genre:	Freylekhs
!!!Mode:	Major (Mixolydian)
!!!Listening/dance:	dance
!!!One_Mode:	yes
**kern
*I"P1
*clefG2
*k[f#]
*-
!!!Genre:	Freylekhs
!!!Mode:	Major (Mixolydian)
!!!Listening/dance:	dance
!!!One_Mode:	yes
**kern
*I"P1
*clefG2
*k[f#]
*-
!!!Genre:	Freylekhs
!!!Mode:	Major (Mixolydian)
!!!Listening/dance:	dance
!!!One_Mode:	yes
**kern
*I"P1
*clefG2
*k[f#]
*-
!!!Genre:	Freylekhs
!!!Mode:	Major (Mixolydian)
!!!Listening/dance:	dance
!!!One_Mode:	yes
**kern
*I"P1
*clefG2
*k[f#]
*-
!!!Genre:	Freylekhs
!!!Mode:	Major (Mixolydian)
!!!Listening/dance:	dance
!!!One_Mode:	yes
**kern
*I"P1
*clefG2
*k[f#]
*-
!!!Genre:	Freylekhs
!!!Mode:	Major (Mixolydian)
!!!Listening/dance:	dance
!!!One_Mode:	yes
**kern
*I"P1
*clefG2
*k[f#]
*-
!!!Genre:	Freylekhs
!!!Mode:	Major (Mixolydian)
!!!Listening/dance:	dance
!!!One_Mode:	yes
**kern
*I"P1
*clefG2
*k[]
*-
!!!Genre:	Freylekhs
!!!Mode:	Major
!!!Listening/dance:	dance
!!!:	*g:dor
!!!One_Mode:	no
**kern
*I"P1
*clefG2
*k[f#]
*-
!!!Genre:	Skotshne
!!!Mode:	Major
!!!Listening/dance:	dance
!!!One_Mode:	yes
**kern
*I"P1
*clefG2
*k[f#]
*-
!!!Genre:	Sher
!!!Mode:	Freygish
!!!Listening/dance:	dance
!!!One_Mode:	yes
**kern
*I"P1
*clefG2
*k[b-e-a-]
*-
!!!Genre:	Sher
!!!Mode:	Freygish
!!!Listening/dance:	dance
!!!One_Mode:	yes
**kern
*I"P1
*clefG2
*k[b-e-a-]
*-
!!!Genre:	Sher
!!!Mode:	Freygish
!!!Listening/dance:	dance
!!!One_Mode:	yes
**kern
*I"P1
*clefG2
*k[b-e-a-]
*-
!!!Genre:	Sher
!!!Mode:	Freygish
!!!Listening/dance:	dance
!!!:	*C:
!!!One_Mode:	no
**kern
*I"P1
*clefG2
*k[b-e-a-]
*-
!!!Genre:	Sher
!!!Mode:	Freygish
!!!Listening/dance:	dance
!!!One_Mode:	no
**kern
*I"P1
*clefG2
*k[b-e-a-]
*-
!!!Genre:	Sher
!!!Mode:	Freygish
!!!Listening/dance:	dance
!!!:	*c:
!!!One_Mode:	no
**kern
*I"P1
*clefG2
*k[b-e-a-]
*-
!!!Genre:	Sher
!!!Mode:	Freygish
!!!Listening/dance:	dance
!!!:	*c:
!!!One_Mode:	no
**kern
*I"P1
*clefG2
*k[b-e-a-]
*-
!!!Genre:	Sher
!!!Mode:	Altered Dorian
!!!Listening/dance:	dance
!!!One_Mode:	no
**kern
*I"P1
*clefG2
*k[b-]
*-
!!!Genre:	Sher
!!!Mode:	Altered Dorian
!!!Listening/dance:	dance
!!!:	*G:
!!!One_Mode:	no
**kern
*I"P1
*clefG2
*k[b-]
*-
!!!Genre:	Sher
!!!Mode:	Altered Dorian
!!!Listening/dance:	dance
!!!One_Mode:	yes
**kern
*I"P1
*clefG2
*k[b-]
*-
!!!Genre:	Sher
!!!Mode:	Minor
!!!Listening/dance:	dance
!!!One_Mode:	yes
**kern
*I"P1
*clefG2
*k[b-e-]
*-
!!!Genre:	Sher
!!!Mode:	Minor
!!!Listening/dance:	dance
!!!:	*g:dor
!!!One_Mode:	no
**kern
*I"P1
*clefG2
*k[b-e-]
*-
!!!Genre:	Sher
!!!Mode:	Minor
!!!Listening/dance:	dance
!!!One_Mode:	yes
**kern
*I"P1
*clefG2
*k[b-e-]
*-
!!!Genre:	Sher
!!!Mode:	Minor
!!!Listening/dance:	dance
!!!:	*g:dor
!!!One_Mode:	no
**kern
*I"P1
*clefG2
*k[b-e-]
*-
!!!Genre:	Sher
!!!Mode:	Minor
!!!Listening/dance:	dance
!!!:	*B-:
!!!One_Mode:	no
**kern
*I"P1
*clefG2
*k[b-e-]
*B-:
=10!|:
*>B
4ff
4ee-
=11
2dd
=12
8dd
4cc
8cc
=13
4.cc
8b-
=14
4dd
4cc
=15
2b-
=16
8fL
8f
8g
8aJ
=17
8b-L
8cc
8dd
8ee-J
=18:|!
4b-
8r
*>eM
==
*-
!!!Genre:	Sher
!!!Mode:	Minor
!!!Listening/dance:	dance
!!!One_Mode:	yes
**kern
*I"P1
*clefG2
*k[b-e-]
*-
!!!Genre:	Sher
!!!Mode:	Minor
!!!Listening/dance:	dance
!!!One_Mode:	yes
**kern
*I"P1
*clefG2
*k[b-e-]
*-
!!!Genre:	Sher
!!!Mode:	Minor
!!!Listening/dance:	dance
!!!One_Mode:	yes
**kern
*I"P1
*clefG2
*k[b-e-]
*-
!!!Genre:	Sher
!!!Mode:	Minor
!!!Listening/dance:	dance
!!!One_Mode:	yes
**kern
*I"P1
*clefG2
*k[b-e-]
*-
!!!Genre:	Sher
!!!Mode:	Minor
!!!Listening/dance:	dance
!!!One_Mode:	yes
**kern
*I"P1
*clefG2
*k[b-e-]
*-
!!!Genre:	Sher
!!!Mode:	Minor
!!!Listening/dance:	dance
!!!One_Mode:	yes
**kern
*I"P1
*clefG2
*k[b-e-]
*-
!!!Genre:	Sher
!!!Mode:	Minor
!!!Listening/dance:	dance
!!!One_Mode:	yes
**kern
*I"P1
*clefG2
*k[b-e-]
*-
!!!Genre:	Sher
!!!Mode:	Minor
!!!Listening/dance:	dance
!!!:	*B-:
!!!One_Mode:	no
**kern
*I"P1
*clefG2
*k[b-e-]
*B-:
=10!|:
4.b-
16ccLL
16ddJJ
=11
4.b-
16ccLL
16ddJJ
=12
8b-L
16ccL
16ddJJ
8b-L
16ccL
16ddJJ
=13
16b-LL
16f
16g
16aJJ
16b-LL
16cc
16dd
16ee-JJ
=14
4.ff
8een
=15
4.ff
8een
=16
(16ggLL
16ff)
(16ff
16eenJJ)
(16ggLL
16ff)
(16ff
16eeJJ)
=17
(16ggLL
16ff)
(16ff
16eenJJ)
4ff
=18
(16qqff/LL
16qqgg/
16qqaa/JJ
16bb-LL)
16dd
16ee-X
16ggJJ
16ffLL
16dd
16ee-
16ccJJ
=19
4.ddt
16ccLL
16b-JJ
=20
(8qdd/
16ccLL)
16bn
16cc
16ddJJ
16ee-LL
16f
16g
16aJJ
=21
16b-XLL
16dd
16cc
16ee-JJ
16ddLL
16ff
16ee-
16ggJJ
=22
16ffLL
16bb-
16aa
16ggJJ
16ffLL
16dd
16ee-
16ggJJ
=23
16ffLL
16dd
16ee-
16ccJJ
8ddtL
16ccL
16b-JJ
=24
(8qdd/
16ccLL)
16bn
16cc
16ddJJ
16ee-LL
16f
16g
16aJJ
=25
(16ccLL
16b-XJJ)
4b-
8f
=26:|!
(16ccLL
16b-JJ)
4b-
*>C
8dd
*>eM
*-
!!!Genre:	Sher
!!!Mode:	Minor
!!!Listening/dance:	dance
!!!One_Mode:	yes
**kern
*I"P1
*clefG2
*k[b-e-]
*-
!!!Genre:	Sher
!!!Mode:	Minor
!!!Listening/dance:	dance
!!!One_Mode:	yes
**kern
*I"P1
*clefG2
*k[b-e-]
*-
!!!Genre:	Sher
!!!Mode:	Minor
!!!Listening/dance:	dance
!!!One_Mode:	yes
**kern
*I"P1
*clefG2
*k[b-e-]
*-
!!!Genre:	Sher
!!!Mode:	Major (Mixolydian)
!!!Listening/dance:	dance
!!!:	*g:dor
!!!One_Mode:	no
**kern
*I"P1
*clefG2
*k[f#]
*-
!!!Genre:	Sher
!!!Mode:	Major
!!!Listening/dance:	dance
!!!One_Mode:	yes
**kern
*I"P1
*clefG2
*k[f#]
*-
!!!Genre:	Sher
!!!Mode:	Major
!!!Listening/dance:	dance
!!!One_Mode:	yes
**kern
*I"P1
*clefG2
*k[f#]
*-
!!!Genre:	Plyeskun
!!!Mode:	Minor
!!!Listening/dance:	dance
!!!One_Mode:	yes
**kern
*I"P1
*clefG2
*k[b-e-]
*-
!!!Genre:	Plyeskun
!!!Mode:	Altered Dorian
!!!Listening/dance:	dance
!!!:	*g:
!!!One_Mode:	no
**kern
*staff1
*I"P1
=1-
*clefG2
*k[b-]
*-
!!!Genre:	Plyeskun
!!!Mode:	Freygish
!!!Listening/dance:	dance
!!!:	*B-:
!!!One_Mode:	no
**kern
*I"P1
*clefG2
*k[b-e-a-]
*B-:
=16
16ffLL
16ff
16ff
16ffJJ
8ffL
8ffJ
=17
8b-L
8b-
8cc
8b-J
=18
16ffLL
16ff
16ff
16ffJJ
8ffL
8ffJ
=19
8b-L
8b-J
8ccL
8b-J
=20||!|:
*k[b-e-a-]
*>eM
*-
!!!Genre:	Plyeskun
!!!Mode:	Major
!!!Listening/dance:	dance
!!!One_Mode:	yes
**kern
*I"P1
*clefG2
*k[f#]
*-
!!!Genre:	Plyeskun
!!!Mode:	Major (Mixolydian)
!!!Listening/dance:	dance
!!!One_Mode:	yes
**kern
*I"P1
*clefG2
*k[f#]
*-
!!!Genre:	Beygele
!!!Mode:	Freygish
!!!Listening/dance:	dance
!!!One_Mode:	yes
**kern
*I"P1
*clefG2
*k[b-e-a-]
*-
!!!Genre:	Beygele
!!!Mode:	Minor
!!!Listening/dance:	dance
!!!One_Mode:	yes
**kern
*I"P1
*clefG2
*k[b-e-]
*-
!!!Genre:	Bolgarish
!!!Mode:	Freygish
!!!Listening/dance:	dance
!!!:	*C:
!!!One_Mode:	no
**kern
*I"P1
*clefG2
*k[b-e-a-]
*-
!!!Genre:	Bolgarish
!!!Mode:	Minor
!!!Listening/dance:	dance
!!!One_Mode:	yes
**kern
*I"P1
*clefG2
*k[b-e-]
*-
!!!Genre:	Bolgarish
!!!Mode:	Minor
!!!Listening/dance:	dance
!!!:	*B-:
!!!One_Mode:	no
**kern
*I"P1
*clefG2
*k[b-e-]
*B-:
=17:|!|:
*>B
8f
4b-
8cc
=18
8dd
4dd
8cc
=19
8dd
4dd
8cc
=20
(8qee-/
2dd)
=21
8ffL
8ee-J
(8qff/
8ee-L)
8ddJ
=22
(8qee-/
8ddL)
8ccJ
(8qdd/
8ccL)
8b-J
=23
8ccL
8ddJ
4b-
=24
4f
4b-
*>eM
*-
!!!Genre:	Bulgar
!!!Mode:	Major
!!!Listening/dance:	dance
!!!:	*g:dor
!!!One_Mode:	no
**kern
*I"P1
*clefG2
*k[f#]
*-
!!!Genre:	Bulgar
!!!Mode:	Major
!!!Listening/dance:	dance
!!!One_Mode:	yes
**kern
*I"P1
*clefG2
*k[f#]
*-
!!!Genre:	Khosid
!!!Mode:	Minor
!!!Listening/dance:	dance
!!!One_Mode:	yes
**kern
*I"P1
*clefG2
*k[b-e-]
*-
!!!Genre:	Khosid
!!!Mode:	Minor
!!!Listening/dance:	dance
!!!One_Mode:	yes
**kern
*I"P1
*clefG2
*k[b-e-]
*-
!!!Genre:	Khosidl
!!!Mode:	Minor
!!!Listening/dance:	dance
!!!:	*B-:
!!!One_Mode:	no
**kern
*I"P1
*clefG2
*k[b-e-]
*<bM
*B-:
*M2/4
*>A
=1
8fL
16gL
16aJJ
8b-L
16ccL
16ddJJ
=2
8ee-L
8dd
8cc
8ffJ
=3
4een
16dd-XLL
16cc
16b-
16aJJ
=4
4b-
(8b-L
8qcc/
16aL)
16gJJ
=5:|!
4.b-
*>B
8ff
*>eM
*B-:
=11!|:
[4d
16dLL]
16F
16B-
16cJJ
=12
[4d
16dLL]
16F
16B-
16cJJ
=13
16dLL
16F
16e-
16FJJ
16dLL
16F
16c
16FJJ
=14
[4B-
16B-LL]
16F
16B-
16cJJ
=15:|!
4.B-
8ff
*>eM
==
*-
!!!Genre:	Khosid
!!!Mode:	Minor
!!!Listening/dance:	dance
!!!One_Mode:	yes
**kern
*I"P1
*clefG2
*k[b-e-]
*-
!!!Genre:	Khosid
!!!Mode:	Minor
!!!Listening/dance:	dance
!!!One_Mode:	yes
**kern
*I"P1
*clefG2
*k[b-e-]
*-
!!!Genre:	Khosid
!!!Mode:	Major
!!!Listening/dance:	dance
!!!One_Mode:	yes
**kern
*I"P1
*clefG2
*k[f#]
*-
!!!Genre:	Khosid
!!!Mode:	Minor
!!!Listening/dance:	dance
!!!One_Mode:	yes
**kern
*I"P1
*clefG2
*k[b-e-]
*-
!!!Genre:	Shtok
!!!Mode:	Minor
!!!Listening/dance:	dance
!!!One_Mode:	yes
**kern
*I"P1
*clefG2
*k[b-e-]
*-
!!!Genre:	Shtok
!!!Mode:	Major
!!!Listening/dance:	dance
!!!One_Mode:	yes
**kern
*I"P1
*clefG2
*k[f#]
*-
!!!Genre:	Ange
!!!Mode:	Minor
!!!Listening/dance:	dance
!!!:	*G:frey
!!!One_Mode:	no
**kern
*I"P1
*clefG2
*k[b-e-]
*-
!!!Genre:	Ange
!!!Mode:	Major
!!!Listening/dance:	dance
!!!One_Mode:	no
**kern
*I"P1
*clefG2
*k[f#]
*-
!!!Genre:	Ot azoy
!!!Mode:	Minor
!!!Listening/dance:	dance
!!!:	*G:frey
!!!One_Mode:	no
**kern
*I"P1
*clefG2
*k[b-e-]
*-
!!!Genre:	Lomir zikh iberbetn
!!!Mode:	Freygish
!!!Listening/dance:	dance
!!!One_Mode:	yes
**kern
*I"P1
*clefG2
*k[b-e-a-]
*-
!!!Genre:	Broyges-tants
!!!Mode:	Freygish
!!!Listening/dance:	dance
!!!One_Mode:	yes
**kern
*I"P1
*clefG2
*k[b-e-a-]
*-
!!!Genre:	Alter yidisher tants
!!!Mode:	Minor
!!!Listening/dance:	dance
!!!One_Mode:	yes
**kern
*I"P1
*clefG2
*k[b-e-]
*-
!!!Genre:	Shuster
!!!Mode:	Minor
!!!Listening/dance:	dance
!!!One_Mode:	yes
**kern
*I"P1
*clefG2
*k[b-e-]
*-
!!!Genre:	Shuster
!!!Mode:	Minor
!!!Listening/dance:	dance
!!!One_Mode:	yes
**kern
*I"P1
*clefG2
*k[b-e-]
*-
!!!Genre:	Kozatshke
!!!Mode:	Major
!!!Listening/dance:	dance
!!!One_Mode:	yes
**kern
*I"P1
*clefG2
*k[f#]
*-
!!!Genre:	Kozatshke
!!!Mode:	Major
!!!Listening/dance:	dance
!!!:	*e:
!!!One_Mode:	no
**kern
*I"P1
*clefG2
*k[f#]
*-
!!!Genre:	Kozatshke
!!!Mode:	Major
!!!Listening/dance:	dance
!!!:	*e:
!!!One_Mode:	no
**kern
*I"P1
*clefG2
*k[f#]
*-
!!!Genre:	Kozatshke
!!!Mode:	Minor
!!!Listening/dance:	dance
!!!:	*B-:
!!!One_Mode:	no
**kern
*I"P1
*clefG2
*k[b-e-]
*-
!!!Genre:	Kozatshke (yidishe)
!!!Mode:	Major
!!!Listening/dance:	dance
!!!One_Mode:	yes
**kern
*I"P1
*clefG2
*k[f#]
*-
!!!Genre:	Bitshok
!!!Mode:	Major
!!!Listening/dance:	dance
!!!One_Mode:	yes
**kern
*I"P1
*clefG2
*k[f#]
*-
!!!Genre:	Zhok
!!!Mode:	Freygish
!!!Listening/dance:	dance
!!!:	*F:
!!!One_Mode:	no
**kern
*I"P1
*clefG2
*k[b-e-a-]
*-
!!!Genre:	Zhok
!!!Mode:	Freygish
!!!Listening/dance:	dance
!!!One_Mode:	yes
**kern
*I"P1
*clefG2
*k[b-e-a-]
*-
!!!Genre:	Zhok
!!!Mode:	Altered Dorian
!!!Listening/dance:	dance
!!!:	*B-:; *G:frey
!!!One_Mode:	no
**kern
*I"P1
*clefG2
*k[b-]
*B-:
4f
4b-
8ddL
8ffJ
=18
4een
4ff
4ee-X
=19
4.dd
8cc
12ee-L
12dd
12ccJ
=20
12ee-L
12dd
12ccJ
2cc
=21
4b-
4a
4g
=22
4ff
4een
4gg
=23
2.ff
=24
2.bb-
=25
4f
4b-
8ddL
8ffJ
=26
4een
4ff
4ee-X
=27
4.dd
8cc
12ee-L
12dd
12ccJ
=28
12ee-L
12dd
12ccJ
2cc
*>eM
*>bM
*-
!!!Genre:	Zhok
!!!Mode:	Altered Dorian
!!!Listening/dance:	dance
!!!One_Mode:	yes
**kern
*I"P1
*clefG2
*k[b-]
*-
!!!Genre:	Zhok
!!!Mode:	Minor
!!!Listening/dance:	dance
!!!One_Mode:	yes
**kern
*I"P1
*clefG2
*k[b-e-]
*-
!!!Genre:	Zhok
!!!Mode:	Minor
!!!Listening/dance:	dance
!!!:	*B-:
!!!One_Mode:	no
**kern
*I"P1
*clefG2
*k[b-e-]
*>bM
*B-:
*M3/8
*>A
8f
=1
8ffL
8ee-J
((16qqdd/LL
16qqee-/JJ
16.ddLL)
32ccJJk)
=2
8ffL
8ee-J
((16qqdd/LL
16qqee-/JJ
16ddLL)
16ee-JJ)
=3
8ffL
8ggJ
(16qqff/LL
16qqgg/JJ
16.ffLL)
32ee-JJk
=4
8ddL
8ccJ
16b-LL
16ccJJ
=5
16ccLL
(8qee-/
16dd)
(16dd
16cc)
(16cc
16aJJ)
=6
8.b-L
16fL
16g
16aJJ
=7
4b-
(8qb-/
8bb-)
=8
(8qb-/
4bb-)
=9
4.b-
=
4b-
=10||
*>B
8b-
*>eM
*-
!!!Genre:	Olandre (lyondre)
!!!Mode:	Minor
!!!Listening/dance:	dance
!!!:	*g:dor
!!!One_Mode:	no
**kern
*I"P1
*clefG2
*k[b-e-]
*-
!!!Genre:	Olandre (lyondre)
!!!Mode:	Minor
!!!Listening/dance:	dance
!!!:	*B-:
!!!One_Mode:	no
**kern
*I"P1
*clefG2
*k[b-e-]
*>bM
*B-:
*M3/4
*>A
4f
=1
4b-
4dd
(8qdd/
8ccL)
8b-J
=2
8b-L
8f
8b-
8dd
8cc
8fJ
=3
4b-
4dd
(16ccLL
16ddJ
8ccJ)
=4
4.b-
8r
4f
=5
4b-
4dd
(8qdd/
8.ccL)
16b-Jk
=6
8b-L
8f
8b-
8ddJ
4f
=7
4b-
4dd
(16ccLL
16ddJ
8ccJ)
=
4b-
8r
=8||
*>B
8ddL
8ee-
8eenJ
*>eM
*-
!!!Genre:	Olandre (lyondre)
!!!Mode:	Minor
!!!Listening/dance:	dance
!!!:	*B-:
!!!One_Mode:	no
**kern
*I"P1
*clefG2
*k[b-e-]
*>bM
*B-:
*M3/4
*>A
4f
=1
4b-
4dd
12ee-L
12dd
12ccJ
=2
4b-
4dd
12fL
12g
12aJ
=3
4b-
4dd
12ddL
12ee-
12ccJ
=4
4b-
4bb-
12fL
12g
12aJ
=5
4b-
4dd
12ee-L
12dd
12ccJ
=6
4b-
4ff
12fL
12g
12aJ
=7
4b-
4dd
12ee-L
12dd
12ccJ
=
4b-
4r
=8||
*>B
4dd
*>eM
*-
!!!Genre:	Olandre (lyondre)
!!!Mode:	Minor
!!!Listening/dance:	dance
!!!One_Mode:	yes
**kern
*I"P1
*clefG2
*k[b-e-]
*-
!!!Genre:	Volekh
!!!Mode:	Minor
!!!Listening/dance:	dance
!!!:	*g:dor
!!!One_Mode:	no
**kern
*I"P1
*clefG2
*k[b-e-]
*-
!!!Genre:	Volekh
!!!Mode:	Minor
!!!Listening/dance:	dance
!!!:	*g:dor; *G:
!!!One_Mode:	no
**kern
*I"P1
*clefG2
*k[b-e-]
*-
!!!Genre:	Volekh
!!!Mode:	Major
!!!Listening/dance:	dance
!!!:	*g:dor
!!!One_Mode:	no
**kern
*I"P1
*clefG2
*k[f#]
*-
!!!Genre:	Volekh
!!!Mode:	Altered Dorian
!!!Listening/dance:	dance
!!!One_Mode:	yes
**kern
*I"P1
*clefG2
*k[b-]
*-
